X: 51
T:Morpeth Rant
M:4/4
L:1/8
Q:180
C:Traditional
Q:300
K:D
(3ABc |\
"D"d2 AG FDFA |\
"G"BGBd "A"cAce |\
"D"f2 df "G"gfed |\
"A"c2 e2 A2 (3 ABc |\
"D"d2 AG FDFA |\
"G"BGBd "A"cAce |\
"D"f2 df "A"gfec |\
"D"A2 d4 :: A2 |\
"D"dfaf dfaf |\
"G"gfef "Em"g2 ef |\
"A"gfed cdeg |\
"D"fefg "A"f2 e2 |\
"D"dfaf dfaf |\
"G"gfef "Em"g2 ef |\
"A"gfed ceag |\
"D"f2 d2 d2 :|
